src/actions/16/repeat.svg

<svg xmlns="http://www.w3.org/2000/svg" viewBox="0 0 16 16">
  <defs id="defs3051">
    <style type="text/css" id="current-color-scheme">
      .ColorScheme-Text {
        color:#363636;
      }
      .ColorScheme-NegativeText {
        color:#da4453;
      }
      </style>
  </defs>
 <path 
     style="fill:currentColor;fill-opacity:1;stroke:none" 
     d="M 7.2480469 1.9980469 L 3 2 L 2 3 L 2 4.3125 L 6 9.96875 L 6 12 L 7 12.5 L 7 9.625 L 3 4 L 3 3 L 13 3 L 13 4 L 10.867188 7 L 12.099609 7 L 13.998047 4.3125 L 13.998047 2.9980469 L 12.998047 1.9980469 L 7.2480469 1.9980469 z "
     class="ColorScheme-Text"/>
  <path
      style="fill:currentColor;fill-opacity:1;stroke:none" 
     class="ColorScheme-NegativeText"
    d="M 8.99,8 8,8.99 10.01,11 8,13.01 8.99,14 11,11.99 13.01,14 14,13.01 11.99,11 14,8.99 13.01,8 11,10.01 Z" />
</svg>

<svg xmlns="http://www.w3.org/2000/svg" viewBox="0 0 16 16">
    <path d="M7.248 1.998 3 2 2 3v1.313l4 5.656V12l1 .5V9.625L3 4V3h10v1l-2.133 3H12.1l1.898-2.687V2.998l-1-1h-5.75z" style="fill:currentColor;fill-opacity:1;stroke:none;color:#050505;opacity:.7"/>
    <path d="M8.99 8 8 8.99 10.01 11 8 13.01l.99.99L11 11.99 13.01 14l.99-.99L11.99 11 14 8.99 13.01 8 11 10.01Z" style="fill:currentColor;fill-opacity:1;stroke:none;color:#d98c8c"/>
</svg>
